X: 1
T: the Devil in the Kitchen
T: the Prince of Wales' Jig
C: W. Ross, H.M. Piper
R: strathspey, reel
M: 4/4
L: 1/8
K: A mix
a |\
"A"e>A A/A/A e>A "(D)"f{e}d | "A"e>A A/A/A "G"g2 f<a |\
"A"e>A A/A/A e>A "(D)"f{e}d | "G"B>G d{c}B g2 ||
f<a |\
"A"e>A A/A/A e>A "(D)"f{e}d | "A"e>A A/A/A "G"g2 f<a |\
"A"e>A A/A/A e>A "(D)"f{e}d | "G"B>G d{c}B g2 :|
|: f<g |\
"A"a>A A/A/A e>A A/A/A | "A"a>A A/A/A "G"g2f<g |\
"A"a>A A/A/A A/A/A e>A | "G"B>G d{c}B g2 ||
f<g |\
"A"a>A A/A/A e>A A/A/A | "A"a>A A/A/A "G"g2f<g |\
"D"a{g}f g{f}e (3faf e>c | "G"B>cd>e "E9"f2 :|
